static/logos/lattice-glyph-color.svg

<svg width="50" height="29" viewBox="0 0 50 29" fill="none" xmlns="http://www.w3.org/2000/svg">
<path fill-rule="evenodd" clip-rule="evenodd" d="M11.9728 20.528L5.10309 13.6267C3.93576 12.454 2.04318 12.454 0.875486 13.6267C-0.291829 14.7994 -0.291829 16.7006 0.875486 17.8736L9.85904 26.8985C11.0263 28.0711 12.9194 28.0711 14.0866 26.8985L22.5423 18.4037L18.315 14.1567L11.9728 20.528Z" fill="#16B8A2"/>
<path fill-rule="evenodd" clip-rule="evenodd" d="M37.8683 7.25702L24.6583 20.5276L11.4468 7.25552C10.2791 6.08247 8.38655 6.08247 7.21923 7.25552C6.05192 8.42819 6.05192 10.3295 7.21923 11.5025L22.5445 26.8981C23.7118 28.0709 25.6045 28.0709 26.7721 26.8981L42.096 11.504C43.2632 10.331 43.2632 8.4297 42.096 7.25702C40.9282 6.08435 39.0356 6.08435 37.8683 7.25702Z" fill="#FFB41F"/>
<path fill-rule="evenodd" clip-rule="evenodd" d="M48.4398 17.8749L39.4576 26.8981C38.2904 28.0709 36.3978 28.0709 35.2304 26.8981L13.563 5.1313C12.3957 3.95862 12.3957 2.05735 13.563 0.884669C14.7306 -0.288379 16.6233 -0.288379 17.7905 0.884669L37.3439 20.5276L44.2121 13.6279C45.3798 12.4552 47.2724 12.4552 48.4398 13.6279C49.607 14.801 49.607 16.7022 48.4398 17.8749Z" fill="#F56358"/>
<path fill-rule="evenodd" clip-rule="evenodd" d="M35.75 0.886219C34.5826 -0.286455 32.6901 -0.286455 31.5224 0.886219L18.3125 14.1568L22.5397 18.4037L35.75 5.13321C36.9174 3.96016 36.9174 2.05889 35.75 0.886219Z" fill="#16B8A2"/>
</svg>

<svg xmlns="http://www.w3.org/2000/svg" width="110.345" height="64" fill="none" viewBox="0 0 50 29"><path fill="#16B8A2" fill-rule="evenodd" d="m11.973 20.528-6.87-6.901a2.98 2.98 0 0 0-4.228 0 3.013 3.013 0 0 0 0 4.247l8.984 9.024a2.98 2.98 0 0 0 4.228 0l8.455-8.494-4.227-4.247-6.342 6.371Z" clip-rule="evenodd"/><path fill="#FFB41F" fill-rule="evenodd" d="m37.868 7.257-13.21 13.27L11.447 7.257a2.98 2.98 0 0 0-4.228 0 3.013 3.013 0 0 0 0 4.246l15.325 15.396a2.98 2.98 0 0 0 4.228 0l15.324-15.394a3.013 3.013 0 0 0 0-4.247 2.98 2.98 0 0 0-4.228 0Z" clip-rule="evenodd"/><path fill="#F56358" fill-rule="evenodd" d="m48.44 17.875-8.982 9.023a2.98 2.98 0 0 1-4.228 0L13.563 5.131a3.013 3.013 0 0 1 0-4.246 2.98 2.98 0 0 1 4.228 0l19.553 19.643 6.868-6.9a2.98 2.98 0 0 1 4.228 0 3.013 3.013 0 0 1 0 4.247Z" clip-rule="evenodd"/><path fill="#16B8A2" fill-rule="evenodd" d="M35.75.886a2.98 2.98 0 0 0-4.228 0l-13.21 13.27 4.228 4.248 13.21-13.27a3.013 3.013 0 0 0 0-4.248Z" clip-rule="evenodd"/></svg>
